pix_core/f/text.svg

<svg fill="none" preserveAspectRatio="xMinYMid meet" viewBox="0 0 24 24" xmlns="http://www.w3.org/2000/svg"><g fill="#fff"><path d="m12.0098 12c0-.2761.2238-.5.5-.5h3.4903c.2762 0 .5.2239.5.5s-.2238.5-.5.5h-3.4903c-.2762 0-.5-.2239-.5-.5z"/><path d="m8.5 14.5c-.27614 0-.5.2239-.5.5s.22386.5.5.5h7.5c.2761 0 .5-.2239.5-.5s-.2239-.5-.5-.5z"/><path d="m8 18c0-.2761.22386-.5.5-.5h7.5c.2761 0 .5.2239.5.5s-.2239.5-.5.5h-7.5c-.27614 0-.5-.2239-.5-.5z"/><path d="m7.71924 7.5c-.27614 0-.5.22386-.5.5v1.33333c0 .27615.22386.5.5.5s.5-.22385.5-.5v-.83333h1v3h-.16683c-.27614 0-.5.2239-.5.5s.22386.5.5.5h1.33329c.2762 0 .5-.2239.5-.5s-.2238-.5-.5-.5h-.1665v-3h1v.83333c0 .27615.2239.5.5.5.2762 0 .5-.22385.5-.5v-1.33333c0-.27614-.2238-.5-.5-.5z"/><path clip-rule="evenodd" d="m19.5 19c0 1.3807-1.1193 2.5-2.5 2.5h-10c-1.38071 0-2.5-1.1193-2.5-2.5v-14c0-1.38071 1.11929-2.5 2.5-2.5h6.1716c.663 0 1.2989.26339 1.7677.73223l3.8285 3.82843c.4688.46884.7322 1.10473.7322 1.76777zm-14-14c0-.82843.67157-1.5 1.5-1.5h6c.2761 0 .5.22386.5.5v3c0 .82843.6716 1.5 1.5 1.5h3c.2761 0 .5.22386.5.5v10c0 .8284-.6716 1.5-1.5 1.5h-10c-.82843 0-1.5-.6716-1.5-1.5zm9-.79289 3.2929 3.29289h-2.7929c-.2761 0-.5-.22386-.5-.5z" fill-rule="evenodd"/></g></svg>

<svg viewBox="0 0 24 24" fill="none" xmlns="http://www.w3.org/2000/svg" preserveAspectRatio="xMinYMid meet">
<path  d="M12.0098 12C12.0098 11.7239 12.2336 11.5 12.5098 11.5H16.0001C16.2763 11.5 16.5001 11.7239 16.5001 12C16.5001 12.2761 16.2763 12.5 16.0001 12.5H12.5098C12.2336 12.5 12.0098 12.2761 12.0098 12Z" fill="#fff"/>
<path  d="M8.5 14.5C8.22386 14.5 8 14.7239 8 15C8 15.2761 8.22386 15.5 8.5 15.5L16 15.5C16.2761 15.5 16.5 15.2761 16.5 15C16.5 14.7239 16.2761 14.5 16 14.5L8.5 14.5Z" fill="#fff"/>
<path  d="M8 18C8 17.7239 8.22386 17.5 8.5 17.5L16 17.5C16.2761 17.5 16.5 17.7239 16.5 18C16.5 18.2761 16.2761 18.5 16 18.5H8.5C8.22386 18.5 8 18.2761 8 18Z" fill="#fff"/>
<path  d="M7.71924 7.5C7.4431 7.5 7.21924 7.72386 7.21924 8V9.33333C7.21924 9.60948 7.4431 9.83333 7.71924 9.83333C7.99538 9.83333 8.21924 9.60948 8.21924 9.33333V8.5H9.21924V11.5H9.05241C8.77627 11.5 8.55241 11.7239 8.55241 12C8.55241 12.2761 8.77627 12.5 9.05241 12.5H10.3857C10.6619 12.5 10.8857 12.2761 10.8857 12C10.8857 11.7239 10.6619 11.5 10.3857 11.5H10.2192V8.5H11.2192V9.33333C11.2192 9.60948 11.4431 9.83333 11.7192 9.83333C11.9954 9.83333 12.2192 9.60948 12.2192 9.33333V8C12.2192 7.72386 11.9954 7.5 11.7192 7.5H7.71924Z" fill="#fff"/>
<path fill-rule="evenodd" clip-rule="evenodd" d="M19.5 19C19.5 20.3807 18.3807 21.5 17 21.5H7C5.61929 21.5 4.5 20.3807 4.5 19V5C4.5 3.61929 5.61929 2.5 7 2.5H13.1716C13.8346 2.5 14.4705 2.76339 14.9393 3.23223L18.7678 7.06066C19.2366 7.5295 19.5 8.16539 19.5 8.82843V19ZM5.5 5C5.5 4.17157 6.17157 3.5 7 3.5H13C13.2761 3.5 13.5 3.72386 13.5 4V7C13.5 7.82843 14.1716 8.5 15 8.5H18C18.2761 8.5 18.5 8.72386 18.5 9V19C18.5 19.8284 17.8284 20.5 17 20.5H7C6.17157 20.5 5.5 19.8284 5.5 19V5ZM14.5 4.20711L17.7929 7.5H15C14.7239 7.5 14.5 7.27614 14.5 7V4.20711Z" fill="#fff"/>
</svg>
